assets/svg/battery_icon.svg

<svg fill="none" height="30" viewBox="0 0 19 30" width="19" xmlns="http://www.w3.org/2000/svg"><g fill="#101820"><path d="m16.2199 2.51961h-2.88v-.96c0-.54395-.4161-.960001-.96-.960001h-5.76004c-.54394 0-.96.416051-.96.960001v.96h-2.88c-1.05605 0-1.919997.86395-1.919997 1.92v23.03999c0 1.0561.863947 1.92 1.919997 1.92h13.44004c1.056 0 1.92-.8639 1.92-1.92v-23.03999c0-1.05605-.864-1.92-1.92-1.92zm-13.44004 24.95999v-23.03999h13.44004v23.03999z"/><path d="m7.57983 23.6392c-.16 0-.35197-.0319-.51197-.16-.44803-.288-.57606-.8639-.32-1.3119l3.61604-5.792-2.62399.5119c-.35197.064-.73605-.0639-.96-.3839-.22396-.32-.25604-.704-.06396-1.024l3.84005-6.71996c.256-.44803.8639-.60803 1.3119-.35197.4481.25604.6081.86394.352 1.31197l-2.784 4.89596 2.72-.5439c.3839-.064.768.096.992.3839.2239.32.2239.7361.032 1.0561l-4.80005 7.68c-.1601.2878-.4801.4478-.8001.4478z"/></g></svg>

<svg width="19" height="30" viewBox="0 0 19 30" fill="none" xmlns="http://www.w3.org/2000/svg">
<path d="M16.2199 2.51961H13.3399V1.55961C13.3399 1.01566 12.9238 0.599609 12.3799 0.599609H6.61986C6.07592 0.599609 5.65986 1.01566 5.65986 1.55961V2.51961H2.77986C1.72381 2.51961 0.859863 3.38356 0.859863 4.43961V27.4796C0.859863 28.5357 1.72381 29.3996 2.77986 29.3996H16.2199C17.2759 29.3996 18.1399 28.5357 18.1399 27.4796V4.43961C18.1399 3.38356 17.2759 2.51961 16.2199 2.51961ZM2.77986 27.4796V4.43961H16.2199V27.4796H2.77986Z" fill="#101820"/>
<path d="M7.57983 23.6392C7.41983 23.6392 7.22786 23.6073 7.06786 23.4792C6.61983 23.1912 6.4918 22.6153 6.74786 22.1673L10.3639 16.3753L7.73991 16.8872C7.38794 16.9512 7.00386 16.8233 6.77991 16.5033C6.55595 16.1833 6.52387 15.7993 6.71595 15.4793L10.556 8.75934C10.812 8.31131 11.4199 8.15131 11.8679 8.40737C12.316 8.66341 12.476 9.27131 12.2199 9.71934L9.4359 14.6153L12.1559 14.0714C12.5398 14.0074 12.9239 14.1674 13.1479 14.4553C13.3718 14.7753 13.3718 15.1914 13.1799 15.5114L8.37985 23.1914C8.21975 23.4792 7.89975 23.6392 7.57975 23.6392L7.57983 23.6392Z" fill="#101820"/>
</svg>
